packages/example/public/luts/warm.cube
TITLE "Warm"
LUT_3D_SIZE 2
0.06 0 0
1 0 0
0.06 0.97 0
1 0.97 0
0.06 0 0.75
1 0 0.75
0.06 0.97 0.75
1 0.97 0.75
